!!!COM: Corelli, Arcangelo
!!!OPR: Church Sonata in D Major
!!!ONM: Opus 5, No. 1
!!!OTL: Adagio 
!!!OMV: 3
!!!YOR:
!!!EED: Frances Bennion
!!!ENC: Frances Bennion
!!!CDT: 1653/2/17/-1713/1/8/
!!!OCY: Italia
!!!YEC: Copyright (c) 1994, 2000 Center for Computer Assisted Research in the Humanities
!!!YEM: Rights to all derivative editions reserved.
!!!YEM: Refer to licensing agreement for further details.
!!!YEN: United States of America
**kern	**kern
*k[f#c#]	*k[f#c#]
*b:	*b:
*clefG	*clefC
*M3/2	*M3/2
*tb4	*tb4
=1	=1
2r	1BB
2dd	.
2b	2B
=2	=2
2gg	2E
2.ff#	1AA#
4ee	.
=3	=3
2dd	1BB
2b	.
2ff#	2AA
=4	=4
2.bb	1GG
4ddd	.
4ccc#	2EE
4bb	.
=5	=5
1.aa#	2FF#
.	2F#
.	2E
=6	=6
2r	1D#
2bb	.
2ff#	2D#
=7	=7
1gg	1E
2ff#	2F#
=8	=8
2bb	2G
2.ee	1GG
4ff#	.
=9	=9
1.ff#	2FF#
.	2F#
.	2F#
=10	=10
2r	1B
2ff#	.
2ff#	2A
=11	=11
1bb	2r
.	2G
2aa	2F#
=12	=12
1gg	2BB
.	2C#
2ff#	2D
=13	=13
2ee	2AA
1a	2A
.	2G
=14	=14
2r	2F#
2dd	2FF#
2ff#	2r
=15	=15
2b	2G
2ee	2GG
4ff#	2r
4gg	.
=16	=16
2cc#	2A
2ff#	2AA
4gg	2r
4aa	.
=17	=17
2dd	2B
2gg	2BB
4aa	2r
4bb	.
=18	=18
2.aa	2c#
.	2A
4gg	.
4ff#	2d
4ee	.
=19	=19
4ff#	2G
4gg	.
1ee	2A
.	2AA
=20	=20
2dd	2D
2b	1r
2dd	.
=21	=21
2cc#	2r
2f#	2F#
[2ff#	2A
=22	=22
2ff#]	2G#
1ee	2C#
.	[2c#
=23	=23
1dd	2c#]
.	2F#
2dd	2B
=24	=24
2e#	1BB
2c#	.
2cc#	2AA
=25	=25
4b	2BB
4a	.
1g#	1C#
=26	=26
2f#	2F#
[1aa	2f#
.	2e
=27	=27
2aa]	2d#
4bb	2B
4aa	.
4gg	2e
4ff#	.
=28	=28
4gg	2A
4aa	.
1ff#	2B
.	2BB
=29	=29
2ee	2E
[1gg	2e
.	2d
=30	=30
2gg]	2c#
4aa	2A
4gg	.
4ff#	2c#
4ee	.
=31	=31
2ff#	2d
4dd	2f#
4ee	.
2ff#	2d
=32	=32
2r	2G#
4cc#	2A#
4dd	.
2ee	2F#
=33	=33
2r	2B
4b	2d
4cc#	.
2dd	2B
=34	=34
2r	1E
2cc#	.
4dd	2E
4ee	.
=35	=35
2a#	1F#
2f#	.
[2ff#	2D
=36	=36
2ff#]	1G
2b	.
[2ee	2E
=37	=37
2ee]	2AA#
2dd	2BB
2cc#	2E
=38	=38
2dd	2F#
1cc#	1FF#
=39	=39
2b	1BB
[1ff#	.
.	2AA
=40	=40
2ff#]	1GG
2b	.
2gg	2E
=41	=41
1a#	1E
2ff#	2D
=42	=42
4ee	2E
4dd	.
1cc#	2F#
.	2FF#
=43	=43
1b	1BB
2ff#	2AA
=44	=44
2ff#	2AA
1ee	1GG
=45	=45
1.ff#	1.FF#
=46	=46
*-	*-
!!!RWG1: This file contains only pitch and duration data.
!!!RWG2: Transposing instruments are not transposed.
!!!RWG3: Spines may have incompatible meters.
!!!RWG4: Durations of rests and tied notes may be interpreted.
!!!RWG: Key is interpreted using the Humdrum key tool.
!!!AFT: stage1
!!!END: 1997/04/15
!!format changes:
!!content changes:
!!public access: complete
!!!KEY: 2143104057
!!!EMD: Converted from MuseData to Humdrum Dec 16, 2000, by Andreas Kornstaedt using muse2kern.
